images/3233147.svg

<?xml version="1.0" encoding="UTF-8"?>
<svg xmlns="http://www.w3.org/2000/svg" xmlns:xlink="http://www.w3.org/1999/xlink" width="300pt" height="300pt" viewBox="0 0 300 300" version="1.1">
<defs>
<g>
<symbol overflow="visible" id="glyph0-0">
<path style="stroke:none;" d="M 0.453125 1.59375 L 0.453125 -6.34375 L 4.953125 -6.34375 L 4.953125 1.59375 Z M 0.953125 1.09375 L 4.453125 1.09375 L 4.453125 -5.84375 L 0.953125 -5.84375 Z M 0.953125 1.09375 "/>
</symbol>
<symbol overflow="visible" id="glyph0-1">
<path style="stroke:none;" d="M 0.890625 -6.5625 L 2.078125 -6.5625 L 4.984375 -1.078125 L 4.984375 -6.5625 L 5.84375 -6.5625 L 5.84375 0 L 4.65625 0 L 1.75 -5.484375 L 1.75 0 L 0.890625 0 Z M 0.890625 -6.5625 "/>
</symbol>
<symbol overflow="visible" id="glyph0-2">
<path style="stroke:none;" d="M 0.890625 -6.5625 L 1.765625 -6.5625 L 1.765625 -3.875 L 5 -3.875 L 5 -6.5625 L 5.890625 -6.5625 L 5.890625 0 L 5 0 L 5 -3.125 L 1.765625 -3.125 L 1.765625 0 L 0.890625 0 Z M 0.890625 -6.5625 "/>
</symbol>
<symbol overflow="visible" id="glyph0-3">
<path style="stroke:none;" d="M 3.546875 -5.953125 C 2.898438 -5.953125 2.382812 -5.710938 2 -5.234375 C 1.625 -4.753906 1.4375 -4.101562 1.4375 -3.28125 C 1.4375 -2.445312 1.625 -1.789062 2 -1.3125 C 2.382812 -0.832031 2.898438 -0.59375 3.546875 -0.59375 C 4.191406 -0.59375 4.703125 -0.832031 5.078125 -1.3125 C 5.453125 -1.789062 5.640625 -2.445312 5.640625 -3.28125 C 5.640625 -4.101562 5.453125 -4.753906 5.078125 -5.234375 C 4.703125 -5.710938 4.191406 -5.953125 3.546875 -5.953125 Z M 3.546875 -6.6875 C 4.460938 -6.6875 5.195312 -6.375 5.75 -5.75 C 6.300781 -5.132812 6.578125 -4.3125 6.578125 -3.28125 C 6.578125 -2.238281 6.300781 -1.410156 5.75 -0.796875 C 5.195312 -0.179688 4.460938 0.125 3.546875 0.125 C 2.617188 0.125 1.878906 -0.179688 1.328125 -0.796875 C 0.773438 -1.410156 0.5 -2.238281 0.5 -3.28125 C 0.5 -4.3125 0.773438 -5.132812 1.328125 -5.75 C 1.878906 -6.375 2.617188 -6.6875 3.546875 -6.6875 Z M 3.546875 -6.6875 "/>
</symbol>
</g>
</defs>
<g id="surface45097">
<rect x="0" y="0" width="300" height="300" style="fill:rgb(100%,100%,100%);fill-opacity:1;stroke:none;"/>
<path style="fill:none;stroke-width:1.2;stroke-linecap:butt;stroke-linejoin:miter;stroke:rgb(0%,0%,0%);stroke-opacity:1;stroke-miterlimit:10;" d="M 35.25 149.964844 L 44.019531 143.066406 "/>
<path style="fill:none;stroke-width:1.2;stroke-linecap:butt;stroke-linejoin:miter;stroke:rgb(0%,0%,100%);stroke-opacity:1;stroke-miterlimit:10;" d="M 44.019531 143.066406 L 52.785156 136.171875 "/>
<path style="fill:none;stroke-width:1.2;stroke-linecap:butt;stroke-linejoin:miter;stroke:rgb(0%,0%,100%);stroke-opacity:1;stroke-miterlimit:10;" d="M 52.785156 136.171875 L 51.199219 125.128906 "/>
<path style="fill:none;stroke-width:1.2;stroke-linecap:butt;stroke-linejoin:miter;stroke:rgb(0%,0%,0%);stroke-opacity:1;stroke-miterlimit:10;" d="M 51.199219 125.128906 L 49.609375 114.085938 "/>
<path style="fill:none;stroke-width:1.2;stroke-linecap:butt;stroke-linejoin:miter;stroke:rgb(0%,0%,100%);stroke-opacity:1;stroke-miterlimit:10;" d="M 52.785156 136.171875 L 63.144531 140.316406 "/>
<path style="fill:none;stroke-width:1.2;stroke-linecap:butt;stroke-linejoin:miter;stroke:rgb(0%,0%,0%);stroke-opacity:1;stroke-miterlimit:10;" d="M 63.144531 140.316406 L 73.5 144.460938 "/>
<path style=" stroke:none;fill-rule:nonzero;fill:rgb(100%,100%,100%);fill-opacity:1;" d="M 49.785156 130.671875 L 56.785156 130.671875 L 56.785156 141.671875 L 49.785156 141.671875 Z M 49.785156 130.671875 "/>
<g style="fill:rgb(0%,0%,100%);fill-opacity:1;">
  <use xlink:href="#glyph0-1" x="49.785156" y="139.334961"/>
</g>
<path style="fill:none;stroke-width:1.2;stroke-linecap:butt;stroke-linejoin:miter;stroke:rgb(0%,0%,0%);stroke-opacity:1;stroke-miterlimit:10;" d="M 73.5 144.460938 L 91.035156 130.667969 "/>
<path style="fill:none;stroke-width:1.2;stroke-linecap:butt;stroke-linejoin:miter;stroke:rgb(0%,0%,0%);stroke-opacity:1;stroke-miterlimit:10;" d="M 91.035156 130.667969 L 87.859375 108.585938 "/>
<path style="fill:none;stroke-width:1.2;stroke-linecap:butt;stroke-linejoin:miter;stroke:rgb(0%,0%,0%);stroke-opacity:1;stroke-miterlimit:10;" d="M 95.914062 127.710938 L 93.375 110.046875 "/>
<path style="fill:none;stroke-width:1.2;stroke-linecap:butt;stroke-linejoin:miter;stroke:rgb(0%,0%,0%);stroke-opacity:1;stroke-miterlimit:10;" d="M 111.75 138.957031 L 91.035156 130.667969 "/>
<path style="fill:none;stroke-width:1.2;stroke-linecap:butt;stroke-linejoin:miter;stroke:rgb(0%,0%,0%);stroke-opacity:1;stroke-miterlimit:10;" d="M 87.859375 108.585938 L 105.394531 94.789062 "/>
<path style="fill:none;stroke-width:1.2;stroke-linecap:butt;stroke-linejoin:miter;stroke:rgb(0%,0%,0%);stroke-opacity:1;stroke-miterlimit:10;" d="M 105.394531 94.789062 L 126.109375 103.082031 "/>
<path style="fill:none;stroke-width:1.2;stroke-linecap:butt;stroke-linejoin:miter;stroke:rgb(0%,0%,0%);stroke-opacity:1;stroke-miterlimit:10;" d="M 105.515625 100.492188 L 122.085938 107.125 "/>
<path style="fill:none;stroke-width:1.2;stroke-linecap:butt;stroke-linejoin:miter;stroke:rgb(0%,0%,0%);stroke-opacity:1;stroke-miterlimit:10;" d="M 126.109375 103.082031 L 129.285156 125.164062 "/>
<path style="fill:none;stroke-width:1.2;stroke-linecap:butt;stroke-linejoin:miter;stroke:rgb(0%,0%,0%);stroke-opacity:1;stroke-miterlimit:10;" d="M 129.285156 125.164062 L 111.75 138.957031 "/>
<path style="fill:none;stroke-width:1.2;stroke-linecap:butt;stroke-linejoin:miter;stroke:rgb(0%,0%,0%);stroke-opacity:1;stroke-miterlimit:10;" d="M 124.289062 122.417969 L 110.257812 133.453125 "/>
<path style="fill:none;stroke-width:1.2;stroke-linecap:butt;stroke-linejoin:miter;stroke:rgb(0%,0%,0%);stroke-opacity:1;stroke-miterlimit:10;" d="M 111.75 138.957031 L 114.925781 161.042969 "/>
<path style="fill:none;stroke-width:1.2;stroke-linecap:butt;stroke-linejoin:miter;stroke:rgb(0%,0%,0%);stroke-opacity:1;stroke-miterlimit:10;" d="M 114.925781 161.042969 L 97.390625 174.835938 "/>
<path style="fill:none;stroke-width:1.2;stroke-linecap:butt;stroke-linejoin:miter;stroke:rgb(0%,0%,0%);stroke-opacity:1;stroke-miterlimit:10;" d="M 116.417969 166.546875 L 102.390625 177.582031 "/>
<path style="fill:none;stroke-width:1.2;stroke-linecap:butt;stroke-linejoin:miter;stroke:rgb(0%,0%,0%);stroke-opacity:1;stroke-miterlimit:10;" d="M 135.640625 169.332031 L 114.925781 161.042969 "/>
<path style="fill:none;stroke-width:1.2;stroke-linecap:butt;stroke-linejoin:miter;stroke:rgb(0%,0%,0%);stroke-opacity:1;stroke-miterlimit:10;" d="M 97.390625 174.835938 L 98.980469 185.875 "/>
<path style="fill:none;stroke-width:1.2;stroke-linecap:butt;stroke-linejoin:miter;stroke:rgb(0%,0%,100%);stroke-opacity:1;stroke-miterlimit:10;" d="M 98.980469 185.875 L 100.566406 196.917969 "/>
<path style="fill:none;stroke-width:1.2;stroke-linecap:butt;stroke-linejoin:miter;stroke:rgb(0%,0%,100%);stroke-opacity:1;stroke-miterlimit:10;" d="M 100.566406 196.917969 L 110.925781 201.0625 "/>
<path style="fill:none;stroke-width:1.2;stroke-linecap:butt;stroke-linejoin:miter;stroke:rgb(0%,0%,0%);stroke-opacity:1;stroke-miterlimit:10;" d="M 110.925781 201.0625 L 121.28125 205.210938 "/>
<path style="fill:none;stroke-width:1.2;stroke-linecap:butt;stroke-linejoin:miter;stroke:rgb(0%,0%,100%);stroke-opacity:1;stroke-miterlimit:10;" d="M 104.589844 192.875 L 112.875 196.191406 "/>
<path style="fill:none;stroke-width:1.2;stroke-linecap:butt;stroke-linejoin:miter;stroke:rgb(0%,0%,0%);stroke-opacity:1;stroke-miterlimit:10;" d="M 112.875 196.191406 L 121.160156 199.507812 "/>
<path style=" stroke:none;fill-rule:nonzero;fill:rgb(100%,100%,100%);fill-opacity:1;" d="M 97.566406 191.417969 L 104.566406 191.417969 L 104.566406 202.417969 L 97.566406 202.417969 Z M 97.566406 191.417969 "/>
<g style="fill:rgb(0%,0%,100%);fill-opacity:1;">
  <use xlink:href="#glyph0-1" x="97.566406" y="200.081055"/>
</g>
<path style="fill:none;stroke-width:1.2;stroke-linecap:butt;stroke-linejoin:miter;stroke:rgb(0%,0%,0%);stroke-opacity:1;stroke-miterlimit:10;" d="M 121.28125 205.210938 L 130.050781 198.3125 "/>
<path style="fill:none;stroke-width:1.2;stroke-linecap:butt;stroke-linejoin:miter;stroke:rgb(0%,0%,100%);stroke-opacity:1;stroke-miterlimit:10;" d="M 130.050781 198.3125 L 138.816406 191.414062 "/>
<path style="fill:none;stroke-width:1.2;stroke-linecap:butt;stroke-linejoin:miter;stroke:rgb(0%,0%,100%);stroke-opacity:1;stroke-miterlimit:10;" d="M 138.816406 191.414062 L 137.230469 180.375 "/>
<path style="fill:none;stroke-width:1.2;stroke-linecap:butt;stroke-linejoin:miter;stroke:rgb(0%,0%,0%);stroke-opacity:1;stroke-miterlimit:10;" d="M 137.230469 180.375 L 135.640625 169.332031 "/>
<path style="fill:none;stroke-width:1.2;stroke-linecap:butt;stroke-linejoin:miter;stroke:rgb(0%,0%,100%);stroke-opacity:1;stroke-miterlimit:10;" d="M 133.304688 189.953125 L 132.03125 181.121094 "/>
<path style="fill:none;stroke-width:1.2;stroke-linecap:butt;stroke-linejoin:miter;stroke:rgb(0%,0%,0%);stroke-opacity:1;stroke-miterlimit:10;" d="M 132.03125 181.121094 L 130.761719 172.289062 "/>
<path style=" stroke:none;fill-rule:nonzero;fill:rgb(100%,100%,100%);fill-opacity:1;" d="M 135.816406 185.914062 L 142.816406 185.914062 L 142.816406 196.914062 L 135.816406 196.914062 Z M 135.816406 185.914062 "/>
<g style="fill:rgb(0%,0%,100%);fill-opacity:1;">
  <use xlink:href="#glyph0-1" x="135.816406" y="194.577148"/>
</g>
<path style="fill:none;stroke-width:1.2;stroke-linecap:butt;stroke-linejoin:miter;stroke:rgb(0%,0%,0%);stroke-opacity:1;stroke-miterlimit:10;" d="M 135.640625 169.332031 L 144.410156 162.4375 "/>
<path style="fill:none;stroke-width:1.2;stroke-linecap:butt;stroke-linejoin:miter;stroke:rgb(0%,0%,100%);stroke-opacity:1;stroke-miterlimit:10;" d="M 144.410156 162.4375 L 153.175781 155.539062 "/>
<path style="fill:none;stroke-width:1.2;stroke-linecap:butt;stroke-linejoin:miter;stroke:rgb(0%,0%,100%);stroke-opacity:1;stroke-miterlimit:10;" d="M 153.175781 155.539062 L 163.535156 159.683594 "/>
<path style="fill:none;stroke-width:1.2;stroke-linecap:butt;stroke-linejoin:miter;stroke:rgb(0%,0%,0%);stroke-opacity:1;stroke-miterlimit:10;" d="M 163.535156 159.683594 L 173.890625 163.828125 "/>
<path style=" stroke:none;fill-rule:nonzero;fill:rgb(100%,100%,100%);fill-opacity:1;" d="M 146.175781 150.039062 L 160.175781 150.039062 L 160.175781 161.039062 L 146.175781 161.039062 Z M 146.175781 150.039062 "/>
<g style="fill:rgb(0%,0%,100%);fill-opacity:1;">
  <use xlink:href="#glyph0-1" x="146.175781" y="158.702148"/>
  <use xlink:href="#glyph0-2" x="153.15332" y="158.702148"/>
</g>
<path style="fill:none;stroke-width:1.2;stroke-linecap:butt;stroke-linejoin:miter;stroke:rgb(0%,0%,0%);stroke-opacity:1;stroke-miterlimit:10;" d="M 173.890625 163.828125 L 191.425781 150.035156 "/>
<path style="fill:none;stroke-width:1.2;stroke-linecap:butt;stroke-linejoin:miter;stroke:rgb(0%,0%,0%);stroke-opacity:1;stroke-miterlimit:10;" d="M 191.425781 150.035156 L 212.140625 158.328125 "/>
<path style="fill:none;stroke-width:1.2;stroke-linecap:butt;stroke-linejoin:miter;stroke:rgb(0%,0%,0%);stroke-opacity:1;stroke-miterlimit:10;" d="M 195.449219 145.992188 L 212.019531 152.625 "/>
<path style="fill:none;stroke-width:1.2;stroke-linecap:butt;stroke-linejoin:miter;stroke:rgb(0%,0%,0%);stroke-opacity:1;stroke-miterlimit:10;" d="M 188.25 127.953125 L 191.425781 150.035156 "/>
<path style="fill:none;stroke-width:1.2;stroke-linecap:butt;stroke-linejoin:miter;stroke:rgb(0%,0%,0%);stroke-opacity:1;stroke-miterlimit:10;" d="M 212.140625 158.328125 L 229.675781 144.535156 "/>
<path style="fill:none;stroke-width:1.2;stroke-linecap:butt;stroke-linejoin:miter;stroke:rgb(0%,0%,0%);stroke-opacity:1;stroke-miterlimit:10;" d="M 212.140625 158.328125 L 213.730469 169.367188 "/>
<path style="fill:none;stroke-width:1.2;stroke-linecap:butt;stroke-linejoin:miter;stroke:rgb(100%,0%,0%);stroke-opacity:1;stroke-miterlimit:10;" d="M 213.730469 169.367188 L 215.316406 180.410156 "/>
<path style="fill:none;stroke-width:1.2;stroke-linecap:butt;stroke-linejoin:miter;stroke:rgb(0%,0%,0%);stroke-opacity:1;stroke-miterlimit:10;" d="M 229.675781 144.535156 L 226.5 122.449219 "/>
<path style="fill:none;stroke-width:1.2;stroke-linecap:butt;stroke-linejoin:miter;stroke:rgb(0%,0%,0%);stroke-opacity:1;stroke-miterlimit:10;" d="M 224.164062 143.074219 L 221.621094 125.40625 "/>
<path style="fill:none;stroke-width:1.2;stroke-linecap:butt;stroke-linejoin:miter;stroke:rgb(0%,0%,0%);stroke-opacity:1;stroke-miterlimit:10;" d="M 226.5 122.449219 L 205.785156 114.160156 "/>
<path style="fill:none;stroke-width:1.2;stroke-linecap:butt;stroke-linejoin:miter;stroke:rgb(0%,0%,0%);stroke-opacity:1;stroke-miterlimit:10;" d="M 226.5 122.449219 L 235.269531 115.554688 "/>
<path style="fill:none;stroke-width:1.2;stroke-linecap:butt;stroke-linejoin:miter;stroke:rgb(100%,0%,0%);stroke-opacity:1;stroke-miterlimit:10;" d="M 235.269531 115.554688 L 244.035156 108.65625 "/>
<path style="fill:none;stroke-width:1.2;stroke-linecap:butt;stroke-linejoin:miter;stroke:rgb(0%,0%,0%);stroke-opacity:1;stroke-miterlimit:10;" d="M 205.785156 114.160156 L 188.25 127.953125 "/>
<path style="fill:none;stroke-width:1.2;stroke-linecap:butt;stroke-linejoin:miter;stroke:rgb(0%,0%,0%);stroke-opacity:1;stroke-miterlimit:10;" d="M 207.277344 119.664062 L 193.25 130.699219 "/>
<path style="fill:none;stroke-width:1.2;stroke-linecap:butt;stroke-linejoin:miter;stroke:rgb(100%,0%,0%);stroke-opacity:1;stroke-miterlimit:10;" d="M 244.035156 108.65625 L 254.394531 112.800781 "/>
<path style="fill:none;stroke-width:1.2;stroke-linecap:butt;stroke-linejoin:miter;stroke:rgb(0%,0%,0%);stroke-opacity:1;stroke-miterlimit:10;" d="M 254.394531 112.800781 L 264.75 116.945312 "/>
<path style=" stroke:none;fill-rule:nonzero;fill:rgb(100%,100%,100%);fill-opacity:1;" d="M 240.035156 103.15625 L 248.035156 103.15625 L 248.035156 114.15625 L 240.035156 114.15625 Z M 240.035156 103.15625 "/>
<g style="fill:rgb(100%,0%,0%);fill-opacity:1;">
  <use xlink:href="#glyph0-3" x="240.035156" y="111.819336"/>
</g>
<path style="fill:none;stroke-width:1.2;stroke-linecap:butt;stroke-linejoin:miter;stroke:rgb(100%,0%,0%);stroke-opacity:1;stroke-miterlimit:10;" d="M 215.316406 180.410156 L 225.675781 184.554688 "/>
<path style="fill:none;stroke-width:1.2;stroke-linecap:butt;stroke-linejoin:miter;stroke:rgb(0%,0%,0%);stroke-opacity:1;stroke-miterlimit:10;" d="M 225.675781 184.554688 L 236.03125 188.699219 "/>
<path style=" stroke:none;fill-rule:nonzero;fill:rgb(100%,100%,100%);fill-opacity:1;" d="M 211.316406 174.910156 L 219.316406 174.910156 L 219.316406 185.910156 L 211.316406 185.910156 Z M 211.316406 174.910156 "/>
<g style="fill:rgb(100%,0%,0%);fill-opacity:1;">
  <use xlink:href="#glyph0-3" x="211.316406" y="183.573242"/>
</g>
</g>
</svg>

<svg xmlns="http://www.w3.org/2000/svg" xmlns:xlink="http://www.w3.org/1999/xlink" width="300pt" height="300pt" viewBox="0 0 300 300"><defs><symbol overflow="visible"><path d="M.453 1.594v-7.938h4.5v7.938zm.5-.5h3.5v-6.938h-3.5zm0 0"/></symbol><symbol overflow="visible" id="a"><path d="M.89-6.563H2.08l2.906 5.485v-5.484h.86V0H4.656L1.75-5.484V0H.89zm0 0"/></symbol><symbol overflow="visible" id="b"><path d="M.89-6.563h.876v2.688H5v-2.688h.89V0H5v-3.125H1.766V0H.89zm0 0"/></symbol><symbol overflow="visible" id="c"><path d="M3.547-5.953c-.65 0-1.164.242-1.547.72-.375.48-.563 1.13-.563 1.952 0 .835.188 1.49.563 1.967.383.48.898.72 1.547.72.644 0 1.156-.24 1.53-.72.376-.476.564-1.132.564-1.968 0-.822-.187-1.474-.562-1.954-.375-.477-.887-.72-1.53-.72zm0-.734c.914 0 1.648.312 2.203.937.55.617.828 1.438.828 2.47 0 1.042-.277 1.87-.828 2.483-.555.617-1.29.922-2.203.922-.93 0-1.668-.305-2.22-.922C.774-1.41.5-2.237.5-3.28c0-1.033.273-1.853.828-2.47.55-.625 1.29-.938 2.22-.938zm0 0"/></symbol></defs><g><path fill="#fff" d="M0 0h300v300H0z"/><path d="M35.25 149.965l8.77-6.9" stroke-width="1.2" stroke="#000" stroke-miterlimit="10" fill="none"/><path d="M44.02 143.066l8.765-6.894M52.785 136.172L51.2 125.13" stroke-width="1.2" stroke="#00f" stroke-miterlimit="10" fill="none"/><path d="M51.2 125.13l-1.59-11.044" stroke-width="1.2" stroke="#000" stroke-miterlimit="10" fill="none"/><path d="M52.785 136.172l10.36 4.144" stroke-width="1.2" stroke="#00f" stroke-miterlimit="10" fill="none"/><path d="M63.145 140.316L73.5 144.46" stroke-width="1.2" stroke="#000" stroke-miterlimit="10" fill="none"/><path d="M49.785 130.672h7v11h-7zm0 0" fill="#fff"/><use xlink:href="#a" x="49.785" y="139.335" fill="#00f"/><path d="M73.5 144.46l17.535-13.792M91.035 130.668l-3.176-22.082M95.914 127.71l-2.54-17.663M111.75 138.957l-20.715-8.29M87.86 108.586l17.535-13.797M105.395 94.79l20.714 8.292M105.516 100.492l16.57 6.633M126.11 103.082l3.175 22.082M129.285 125.164l-17.535 13.793M124.29 122.418l-14.032 11.035M111.75 138.957l3.176 22.086M114.926 161.043L97.39 174.836M116.418 166.547l-14.027 11.035M135.64 169.332l-20.714-8.29M97.39 174.836l1.59 11.04" stroke-width="1.2" stroke="#000" stroke-miterlimit="10" fill="none"/><path d="M98.98 185.875l1.586 11.043M100.566 196.918l10.36 4.144" stroke-width="1.2" stroke="#00f" stroke-miterlimit="10" fill="none"/><path d="M110.926 201.063l10.355 4.148" stroke-width="1.2" stroke="#000" stroke-miterlimit="10" fill="none"/><path d="M104.59 192.875l8.285 3.316" stroke-width="1.2" stroke="#00f" stroke-miterlimit="10" fill="none"/><path d="M112.875 196.19l8.285 3.318" stroke-width="1.2" stroke="#000" stroke-miterlimit="10" fill="none"/><path d="M97.566 191.418h7v11h-7zm0 0" fill="#fff"/><use xlink:href="#a" x="97.566" y="200.081" fill="#00f"/><path d="M121.28 205.21l8.77-6.898" stroke-width="1.2" stroke="#000" stroke-miterlimit="10" fill="none"/><path d="M130.05 198.313l8.766-6.9M138.816 191.414l-1.586-11.04" stroke-width="1.2" stroke="#00f" stroke-miterlimit="10" fill="none"/><path d="M137.23 180.375l-1.59-11.043" stroke-width="1.2" stroke="#000" stroke-miterlimit="10" fill="none"/><path d="M133.305 189.953l-1.274-8.832" stroke-width="1.2" stroke="#00f" stroke-miterlimit="10" fill="none"/><path d="M132.03 181.12l-1.268-8.83" stroke-width="1.2" stroke="#000" stroke-miterlimit="10" fill="none"/><path d="M135.816 185.914h7v11h-7zm0 0" fill="#fff"/><use xlink:href="#a" x="135.816" y="194.577" fill="#00f"/><path d="M135.64 169.332l8.77-6.894" stroke-width="1.2" stroke="#000" stroke-miterlimit="10" fill="none"/><path d="M144.41 162.438l8.766-6.9M153.176 155.54l10.36 4.144" stroke-width="1.2" stroke="#00f" stroke-miterlimit="10" fill="none"/><path d="M163.535 159.684l10.356 4.144" stroke-width="1.2" stroke="#000" stroke-miterlimit="10" fill="none"/><path d="M146.176 150.04h14v11h-14zm0 0" fill="#fff"/><g fill="#00f"><use xlink:href="#a" x="146.176" y="158.702"/><use xlink:href="#b" x="153.153" y="158.702"/></g><path d="M173.89 163.828l17.536-13.793M191.426 150.035l20.715 8.293M195.45 145.992l16.57 6.633M188.25 127.953l3.176 22.082M212.14 158.328l17.536-13.793M212.14 158.328l1.59 11.04" stroke-width="1.2" stroke="#000" stroke-miterlimit="10" fill="none"/><path d="M213.73 169.367l1.586 11.043" stroke-width="1.2" stroke="#f00" stroke-miterlimit="10" fill="none"/><path d="M229.676 144.535L226.5 122.45M224.164 143.074l-2.543-17.668M226.5 122.45l-20.715-8.29M226.5 122.45l8.77-6.895" stroke-width="1.2" stroke="#000" stroke-miterlimit="10" fill="none"/><path d="M235.27 115.555l8.765-6.9" stroke-width="1.2" stroke="#f00" stroke-miterlimit="10" fill="none"/><path d="M205.785 114.16l-17.535 13.793M207.277 119.664L193.25 130.7" stroke-width="1.2" stroke="#000" stroke-miterlimit="10" fill="none"/><path d="M244.035 108.656l10.36 4.145" stroke-width="1.2" stroke="#f00" stroke-miterlimit="10" fill="none"/><path d="M254.395 112.8l10.355 4.145" stroke-width="1.2" stroke="#000" stroke-miterlimit="10" fill="none"/><path d="M240.035 103.156h8v11h-8zm0 0" fill="#fff"/><use xlink:href="#c" x="240.035" y="111.819" fill="#f00"/><path d="M215.316 180.41l10.36 4.145" stroke-width="1.2" stroke="#f00" stroke-miterlimit="10" fill="none"/><path d="M225.676 184.555l10.355 4.144" stroke-width="1.2" stroke="#000" stroke-miterlimit="10" fill="none"/><path d="M211.316 174.91h8v11h-8zm0 0" fill="#fff"/><use xlink:href="#c" x="211.316" y="183.573" fill="#f00"/></g></svg>
